X: 234
T: Lianhua lao
L: 1/8
M: 2/4
K: G
d Bd2 [I:setbarnb 1]| 
Bd2e | 
B A G E | 
A A A B | 
d4 | 
d e d B | 
A B A G | 
A FE2- | 
E2B B | 
B GA2- | 
A2B A | 
B2E G- | 
G2E E | 
B A G A | 
F ED2- | 
D2E E | 
F EG2- | 
G2E A | 
F ED2- | 
D2z2 |]

@@@ Tune index: 9108
